www/assets/icons/addchart.svg

<svg xmlns="http://www.w3.org/2000/svg" width="24" height="24" viewBox="0 0 24 24" fill='currentColor'><path d="M21.5 5.5v2h-3v3h-2v-3h-3v-2h3v-3h2v3zm-3 14h-14v-14h6v-2h-6c-1.1 0-2 .9-2 2v14c0 1.1.9 2 2 2h14c1.1 0 2-.9 2-2v-6h-2zm-4-6v4h2v-4zm-4 4h2v-8h-2zm-2 0v-6h-2v6z"/></svg>

<svg width="24" height="24" viewBox="0 0 24 24" xmlns="http://www.w3.org/2000/svg" fill='currentColor'><path d="M21.5 5.5V7.5H18.5V10.5H16.5V7.5H13.5V5.5H16.5V2.5H18.5V5.5H21.5ZM18.5 19.5H4.5V5.5H10.5V3.5H4.5C3.4 3.5 2.5 4.4 2.5 5.5V19.5C2.5 20.6 3.4 21.5 4.5 21.5H18.5C19.6 21.5 20.5 20.6 20.5 19.5V13.5H18.5V19.5ZM14.5 13.5V17.5H16.5V13.5H14.5ZM10.5 17.5H12.5V9.5H10.5V17.5ZM8.5 17.5V11.5H6.5V17.5H8.5Z"/></svg>
